www/assets/icons/thumbs_up_down.svg

<svg xmlns="http://www.w3.org/2000/svg" width="24" height="24" viewBox="0 0 24 24" fill='currentColor'><g clip-path="url(#a)"><path d="M12 6c0-.55-.45-1-1-1H5.82l.66-3.18.02-.23c0-.31-.13-.59-.33-.8L5.38 0 .44 4.94C.17 5.21 0 5.59 0 6v6.5c0 .83.67 1.5 1.5 1.5h6.75c.62 0 1.15-.38 1.38-.91l2.26-5.29c.07-.17.11-.36.11-.55zm10.5 4h-6.75c-.62 0-1.15.38-1.38.91l-2.26 5.29c-.07.17-.11.36-.11.55V18c0 .55.45 1 1 1h5.18l-.66 3.18-.02.24c0 .31.13.59.33.8l.79.78 4.94-4.94c.27-.27.44-.65.44-1.06v-6.5c0-.83-.67-1.5-1.5-1.5"/></g><defs><clipPath id="a"><path d="M0 0h24v24H0z"/></clipPath></defs></svg>

<svg width="24" height="24" viewBox="0 0 24 24" xmlns="http://www.w3.org/2000/svg" fill='currentColor'><g clip-path="url(#clip0_1616_1935)"><path d="M12 6C12 5.45 11.55 5 11 5H5.82L6.48 1.82L6.5 1.59C6.5 1.28 6.37 1 6.17 0.79L5.38 0L0.44 4.94C0.17 5.21 0 5.59 0 6V12.5C0 13.33 0.67 14 1.5 14H8.25C8.87 14 9.4 13.62 9.63 13.09L11.89 7.8C11.96 7.63 12 7.44 12 7.25V6ZM22.5 10H15.75C15.13 10 14.6 10.38 14.37 10.91L12.11 16.2C12.04 16.37 12 16.56 12 16.75V18C12 18.55 12.45 19 13 19H18.18L17.52 22.18L17.5 22.42C17.5 22.73 17.63 23.01 17.83 23.22L18.62 24L23.56 19.06C23.83 18.79 24 18.41 24 18V11.5C24 10.67 23.33 10 22.5 10Z"/></g><defs><clipPath id="clip0_1616_1935"><rect width="24" height="24"/></clipPath></defs></svg>
